web/ui/src/assets/svgs/logo/loading.svg

<svg height="30" viewBox="0 0 30 30" width="30" xmlns="http://www.w3.org/2000/svg" xmlns:xlink="http://www.w3.org/1999/xlink"><filter id="a"><feColorMatrix in="SourceGraphic" type="matrix" values="0 0 0 0 0.003922 0 0 0 0 0.172549 0 0 0 0 0.325490 0 0 0 1.000000 0"/></filter><g fill="none" fill-rule="evenodd" filter="url(#a)" transform="translate(-945 -288)"><g fill-rule="nonzero" transform="translate(945 288)"><path d="m0 0h30v30h-30z" fill="#000" opacity="0"/><g fill="#012c53"><path d="m15 1.8c.6627417 0 1.2.5372583 1.2 1.2v3.6c0 .6627417-.5372583 1.2-1.2 1.2s-1.2-.5372583-1.2-1.2v-3.6c0-.6627417.5372583-1.2 1.2-1.2z"/><path d="m21.6 3.5682c.5739218.33138046.7705552 1.06526363.4392 1.6392l-1.8 3.1182c-.2128339.37434094-.6099279.60594386-1.040542.60689344-.4306141.00094375-.8287225-.228911-1.0432002-.60231254-.2144778-.37340154-.2124391-.8330964.0053422-1.2045809l1.8-3.1182c.3313805-.57392179 1.0652636-.7705552 1.6392-.4392z" fill-opacity=".900022"/><path d="m26.4318 8.4c.3313552.57393637.1347218 1.30781954-.4392 1.6392l-3.1182 1.8c-.573432.3260283-1.3025045.1280899-1.6323294-.4431668-.3298249-.5712568-.1367269-1.3016263.4323294-1.6352332l3.1182-1.8c.5739364-.3313552 1.3078195-.13472179 1.6392.4392z" fill-opacity=".799306"/><path d="m28.2 15c0 .3182598-.1264282.6234845-.3514719.8485281-.2250436.2250437-.5302683.3514719-.8485281.3514719h-3.6c-.6627417 0-1.2-.5372583-1.2-1.2s.5372583-1.2 1.2-1.2h3.6c.6627417 0 1.2.5372583 1.2 1.2z" fill-opacity=".701868"/><path d="m26.4318 21.6c-.3313805.5739218-1.0652636.7705552-1.6392.4392l-3.1182-1.8c-.3743409-.2128339-.6059439-.6099279-.6068934-1.040542-.0009438-.4306141.228911-.8287225.6023125-1.0432002.3734015-.2144778.8330964-.2124391 1.2045809.0053422l3.1182 1.8c.5739218.3313805.7705552 1.0652636.4392 1.6392z" fill-opacity=".645323"/><path d="m21.6 26.4318c-.5739364.3313552-1.3078195.1347218-1.6392-.4392l-1.8-3.1182c-.3260283-.573432-.1280899-1.3025045.4431668-1.6323294.5712568-.3298249 1.3016263-.1367269 1.6352332.4323294l1.8 3.1182c.3313552.5739364.1347218 1.3078195-.4392 1.6392z" fill-opacity=".59446"/><path d="m15 28.2c-.3182598 0-.6234845-.1264282-.8485281-.3514719-.2250437-.2250436-.3514719-.5302683-.3514719-.8485281v-3.6c0-.6627417.5372583-1.2 1.2-1.2s1.2.5372583 1.2 1.2v3.6c0 .6627417-.5372583 1.2-1.2 1.2z" fill-opacity=".50377"/><path d="m8.4 26.4318c-.57392179-.3313805-.7705552-1.0652636-.4392-1.6392l1.8-3.1182c.2128339-.3743409.6099279-.6059439 1.040542-.6068934.4306141-.0009438.8287225.228911 1.0432002.6023125.2144778.3734015.2124391.8330964-.0053422 1.2045809l-1.8 3.1182c-.33138046.5739218-1.06526363.7705552-1.6392.4392z" fill-opacity=".454928"/><path d="m3.5682 21.6c-.3313552-.5739364-.13472179-1.3078195.4392-1.6392l3.1182-1.8c.57343196-.3260283 1.30250455-.1280899 1.63232944.4431668.32982489.5712568.1367269 1.3016263-.43232944 1.6352332l-3.1182 1.8c-.57393637.3313552-1.30781954.1347218-1.6392-.4392z" fill-opacity=".402781"/><path d="m1.8 15c0-.6627417.5372583-1.2 1.2-1.2h3.6c.6627417 0 1.2.5372583 1.2 1.2s-.5372583 1.2-1.2 1.2h-3.6c-.6627417 0-1.2-.5372583-1.2-1.2z" fill-opacity=".350388"/><path d="m3.5682 8.4c.33138046-.57392179 1.06526363-.7705552 1.6392-.4392l3.1182 1.8c.37434094.2128339.60594386.6099279.60689344 1.040542.00094375.4306141-.228911.8287225-.60231254 1.0432002-.37340154.2144778-.8330964.2124391-1.2045809-.0053422l-3.1182-1.8c-.57392179-.33138046-.7705552-1.06526363-.4392-1.6392z" fill-opacity=".251748"/><path d="m8.4 3.5682c.57393637-.3313552 1.30781954-.13472179 1.6392.4392l1.8 3.1182c.3260283.57343196.1280899 1.30250455-.4431668 1.63232944-.5712568.32982489-1.3016263.1367269-1.6352332-.43232944l-1.8-3.1182c-.3313552-.57393637-.13472179-1.30781954.4392-1.6392z" fill-opacity=".19564"/></g></g></g></svg>

<?xml version="1.0" encoding="UTF-8"?>
<svg width="30px" height="30px" viewBox="0 0 30 30" version="1.1" xmlns="http://www.w3.org/2000/svg" xmlns:xlink="http://www.w3.org/1999/xlink">
    <title>加载</title>
    <defs>
        <filter id="filter-1">
            <feColorMatrix in="SourceGraphic" type="matrix" values="0 0 0 0 0.003922 0 0 0 0 0.172549 0 0 0 0 0.325490 0 0 0 1.000000 0"></feColorMatrix>
        </filter>
    </defs>
    <g id="页面-1" stroke="none" stroke-width="1" fill="none" fill-rule="evenodd">
        <g id="加载备份" transform="translate(-945.000000, -288.000000)" filter="url(#filter-1)">
            <g transform="translate(945.000000, 288.000000)">
                <rect id="矩形" fill="#000000" fill-rule="nonzero" opacity="0" x="0" y="0" width="30" height="30"></rect>
                <path d="M15,1.8 C15.6627417,1.8 16.2,2.3372583 16.2,3 L16.2,6.6 C16.2,7.2627417 15.6627417,7.8 15,7.8 C14.3372583,7.8 13.8,7.2627417 13.8,6.6 L13.8,3 C13.8,2.3372583 14.3372583,1.8 15,1.8 Z" id="路径" fill="#012C53" fill-rule="nonzero"></path>
                <path d="M21.6,3.5682 C22.1739218,3.89958046 22.3705552,4.63346363 22.0392,5.2074 L20.2392,8.3256 C20.0263661,8.69994094 19.6292721,8.93154386 19.198658,8.93249344 C18.7680439,8.93343719 18.3699355,8.70358244 18.1554578,8.3301809 C17.94098,7.95677936 17.9430187,7.4970845 18.1608,7.1256 L19.9608,4.0074 C20.2921805,3.43347821 21.0260636,3.2368448 21.6,3.5682 Z" id="路径" fill-opacity="0.900021853" fill="#012C53" fill-rule="nonzero"></path>
                <path d="M26.4318,8.4 C26.7631552,8.97393637 26.5665218,9.70781954 25.9926,10.0392 L22.8744,11.8392 C22.300968,12.1652283 21.5718955,11.9672899 21.2420706,11.3960332 C20.9122457,10.8247764 21.1053437,10.0944069 21.6744,9.7608 L24.7926,7.9608 C25.3665364,7.6294448 26.1004195,7.82607821 26.4318,8.4 L26.4318,8.4 Z" id="路径" fill-opacity="0.799306163" fill="#012C53" fill-rule="nonzero"></path>
                <path d="M28.2,15 C28.2,15.3182598 28.0735718,15.6234845 27.8485281,15.8485281 C27.6234845,16.0735718 27.3182598,16.2 27,16.2 L23.4,16.2 C22.7372583,16.2 22.2,15.6627417 22.2,15 C22.2,14.3372583 22.7372583,13.8 23.4,13.8 L27,13.8 C27.6627417,13.8 28.2,14.3372583 28.2,15 L28.2,15 Z" id="路径" fill-opacity="0.701868444" fill="#012C53" fill-rule="nonzero"></path>
                <path d="M26.4318,21.6 C26.1004195,22.1739218 25.3665364,22.3705552 24.7926,22.0392 L21.6744,20.2392 C21.3000591,20.0263661 21.0684561,19.6292721 21.0675066,19.198658 C21.0665628,18.7680439 21.2964176,18.3699355 21.6698191,18.1554578 C22.0432206,17.94098 22.5029155,17.9430187 22.8744,18.1608 L25.9926,19.9608 C26.5665218,20.2921805 26.7631552,21.0260636 26.4318,21.6 Z" id="路径" fill-opacity="0.645323427" fill="#012C53" fill-rule="nonzero"></path>
                <path d="M21.6,26.4318 C21.0260636,26.7631552 20.2921805,26.5665218 19.9608,25.9926 L18.1608,22.8744 C17.8347717,22.300968 18.0327101,21.5718955 18.6039668,21.2420706 C19.1752236,20.9122457 19.9055931,21.1053437 20.2392,21.6744 L22.0392,24.7926 C22.3705552,25.3665364 22.1739218,26.1004195 21.6,26.4318 L21.6,26.4318 Z" id="路径" fill-opacity="0.594460227" fill="#012C53" fill-rule="nonzero"></path>
                <path d="M15,28.2 C14.6817402,28.2 14.3765155,28.0735718 14.1514719,27.8485281 C13.9264282,27.6234845 13.8,27.3182598 13.8,27 L13.8,23.4 C13.8,22.7372583 14.3372583,22.2 15,22.2 C15.6627417,22.2 16.2,22.7372583 16.2,23.4 L16.2,27 C16.2,27.6627417 15.6627417,28.2 15,28.2 L15,28.2 Z" id="路径" fill-opacity="0.503769668" fill="#012C53" fill-rule="nonzero"></path>
                <path d="M8.4,26.4318 C7.82607821,26.1004195 7.6294448,25.3665364 7.9608,24.7926 L9.7608,21.6744 C9.9736339,21.3000591 10.3707279,21.0684561 10.801342,21.0675066 C11.2319561,21.0665628 11.6300645,21.2964176 11.8445422,21.6698191 C12.05902,22.0432206 12.0569813,22.5029155 11.8392,22.8744 L10.0392,25.9926 C9.70781954,26.5665218 8.97393637,26.7631552 8.4,26.4318 L8.4,26.4318 Z" id="路径" fill-opacity="0.454927885" fill="#012C53" fill-rule="nonzero"></path>
                <path d="M3.5682,21.6 C3.2368448,21.0260636 3.43347821,20.2921805 4.0074,19.9608 L7.1256,18.1608 C7.69903196,17.8347717 8.42810455,18.0327101 8.75792944,18.6039668 C9.08775433,19.1752236 8.89465634,19.9055931 8.3256,20.2392 L5.2074,22.0392 C4.63346363,22.3705552 3.89958046,22.1739218 3.5682,21.6 L3.5682,21.6 Z" id="路径" fill-opacity="0.402780813" fill="#012C53" fill-rule="nonzero"></path>
                <path d="M1.8,15 C1.8,14.3372583 2.3372583,13.8 3,13.8 L6.6,13.8 C7.2627417,13.8 7.8,14.3372583 7.8,15 C7.8,15.6627417 7.2627417,16.2 6.6,16.2 L3,16.2 C2.3372583,16.2 1.8,15.6627417 1.8,15 Z" id="路径" fill-opacity="0.350387893" fill="#012C53" fill-rule="nonzero"></path>
                <path d="M3.5682,8.4 C3.89958046,7.82607821 4.63346363,7.6294448 5.2074,7.9608 L8.3256,9.7608 C8.69994094,9.9736339 8.93154386,10.3707279 8.93249344,10.801342 C8.93343719,11.2319561 8.70358244,11.6300645 8.3301809,11.8445422 C7.95677936,12.05902 7.4970845,12.0569813 7.1256,11.8392 L4.0074,10.0392 C3.43347821,9.70781954 3.2368448,8.97393637 3.5682,8.4 Z" id="路径" fill-opacity="0.251748252" fill="#012C53" fill-rule="nonzero"></path>
                <path d="M8.4,3.5682 C8.97393637,3.2368448 9.70781954,3.43347821 10.0392,4.0074 L11.8392,7.1256 C12.1652283,7.69903196 11.9672899,8.42810455 11.3960332,8.75792944 C10.8247764,9.08775433 10.0944069,8.89465634 9.7608,8.3256 L7.9608,5.2074 C7.6294448,4.63346363 7.82607821,3.89958046 8.4,3.5682 Z" id="路径" fill-opacity="0.195640297" fill="#012C53" fill-rule="nonzero"></path>
            </g>
        </g>
    </g>
</svg>
